svgs/solid/table.svg

<svg xmlns="http://www.w3.org/2000/svg" viewBox="0 0 512 512"><!--! Font Awesome Free 6.5.2 by @fontawesome - https://fontawesome.com License - https://fontawesome.com/license/free (Icons: CC BY 4.0, Fonts: SIL OFL 1.1, Code: MIT License) Copyright 2024 Fonticons, Inc. --><path d="M64 256V160H224v96H64zm0 64H224v96H64V320zm224 96V320H448v96H288zM448 256H288V160H448v96zM64 32C28.7 32 0 60.7 0 96V416c0 35.3 28.7 64 64 64H448c35.3 0 64-28.7 64-64V96c0-35.3-28.7-64-64-64H64z"/></svg>

<svg xmlns="http://www.w3.org/2000/svg" viewBox="0 0 512 512"><!--! Font Awesome Free 6.6.0 by @fontawesome - https://fontawesome.com License - https://fontawesome.com/license/free (Icons: CC BY 4.0, Fonts: SIL OFL 1.1, Code: MIT License) Copyright 2024 Fonticons, Inc. --><path d="M64 256l0-96 160 0 0 96L64 256zm0 64l160 0 0 96L64 416l0-96zm224 96l0-96 160 0 0 96-160 0zM448 256l-160 0 0-96 160 0 0 96zM64 32C28.7 32 0 60.7 0 96L0 416c0 35.3 28.7 64 64 64l384 0c35.3 0 64-28.7 64-64l0-320c0-35.3-28.7-64-64-64L64 32z"/></svg>
